src/.vuepress/public/img/terra_jigu.svg

<?xml version="1.0" encoding="UTF-8"?>
<svg width="167px" height="48px" viewBox="0 0 167 48" version="1.1" xmlns="http://www.w3.org/2000/svg" xmlns:xlink="http://www.w3.org/1999/xlink">
    <!-- Generator: Sketch 57.1 (83088) - https://sketch.com -->
    <title>Group 2</title>
    <desc>Created with Sketch.</desc>
    <g id="Page-1" stroke="none" stroke-width="1" fill="none" fill-rule="evenodd">
        <g id="Desktop-HD-Copy-3" transform="translate(-182.000000, -40.000000)" fill-rule="nonzero">
            <g id="Group-2" transform="translate(182.000000, 40.000000)">
                <path d="M57.592,33 L57.592,20.28 L52.576,20.28 L52.576,16.2 L67.288,16.2 L67.288,20.28 L62.248,20.28 L62.248,33 L57.592,33 Z M73.288,33.312 C69.208,33.312 66.328,30.576 66.328,26.568 L66.328,26.52 C66.328,22.728 69.04,19.728 72.88,19.728 C77.344,19.728 79.408,23.016 79.408,26.832 C79.408,27.12 79.408,27.456 79.384,27.768 L70.696,27.768 C71.056,29.184 72.088,29.904 73.504,29.904 C74.608,29.904 75.448,29.496 76.384,28.584 L78.904,30.672 C77.656,32.256 75.856,33.312 73.288,33.312 Z M70.624,25.44 L75.16,25.44 C74.992,24 74.128,23.088 72.88,23.088 C71.68,23.088 70.864,24 70.624,25.44 Z M81.376,33 L81.376,20.016 L85.936,20.016 L85.936,22.632 C86.68,20.856 87.88,19.704 90.04,19.8 L90.04,24.6 L89.656,24.6 C87.28,24.6 85.936,25.968 85.936,28.944 L85.936,33 L81.376,33 Z M91.648,33 L91.648,20.016 L96.208,20.016 L96.208,22.632 C96.952,20.856 98.152,19.704 100.312,19.8 L100.312,24.6 L99.928,24.6 C97.552,24.6 96.208,25.968 96.208,28.944 L96.208,33 L91.648,33 Z M105.04,33.288 C102.568,33.288 100.696,31.848 100.696,29.28 L100.696,29.232 C100.696,26.52 102.736,25.152 105.784,25.152 C106.984,25.152 108.16,25.368 108.904,25.656 L108.904,25.44 C108.904,24.072 108.064,23.304 106.312,23.304 C104.944,23.304 103.888,23.592 102.712,24.024 L101.776,20.832 C103.24,20.232 104.8,19.824 107.032,19.824 C109.36,19.824 110.944,20.376 111.976,21.408 C112.96,22.368 113.368,23.712 113.368,25.536 L113.368,33 L108.88,33 L108.88,31.632 C107.968,32.616 106.744,33.288 105.04,33.288 Z M106.672,30.432 C108.016,30.432 108.952,29.592 108.952,28.296 L108.952,27.696 C108.472,27.504 107.824,27.36 107.152,27.36 C105.832,27.36 105.064,27.984 105.064,28.968 L105.064,29.016 C105.064,29.904 105.736,30.432 106.672,30.432 Z M124.6,33.24 C122.08,33.24 120.472,31.992 119.416,30.264 L120.784,29.088 C121.816,30.648 122.872,31.488 124.624,31.488 C126.52,31.488 127.912,30.12 127.912,27.456 L127.912,16.2 L129.832,16.2 L129.832,27.432 C129.832,29.4 129.256,30.888 128.296,31.848 C127.36,32.76 126.088,33.24 124.6,33.24 Z M134.056,17.88 L134.056,15.84 L136.168,15.84 L136.168,17.88 L134.056,17.88 Z M134.176,33 L134.176,20.592 L136.024,20.592 L136.024,33 L134.176,33 Z M145.816,36.888 C143.752,36.888 141.832,36.312 140.176,35.16 L141.016,33.72 C142.432,34.752 144.016,35.304 145.792,35.304 C148.528,35.304 150.304,33.792 150.304,30.888 L150.304,29.424 C149.224,30.864 147.712,32.04 145.432,32.04 C142.456,32.04 139.6,29.808 139.6,26.232 L139.6,26.184 C139.6,22.56 142.48,20.328 145.432,20.328 C147.76,20.328 149.272,21.48 150.28,22.824 L150.28,20.592 L152.128,20.592 L152.128,30.84 C152.128,32.76 151.552,34.224 150.544,35.232 C149.44,36.336 147.784,36.888 145.816,36.888 Z M145.792,30.408 C148.144,30.408 150.352,28.704 150.352,26.208 L150.352,26.16 C150.352,23.616 148.144,21.96 145.792,21.96 C143.44,21.96 141.496,23.592 141.496,26.136 L141.496,26.184 C141.496,28.68 143.488,30.408 145.792,30.408 Z M160.816,33.264 C157.816,33.264 156.064,31.248 156.064,28.296 L156.064,20.592 L157.912,20.592 L157.912,27.84 C157.912,30.144 159.16,31.584 161.344,31.584 C163.456,31.584 165.064,30.024 165.064,27.696 L165.064,20.592 L166.888,20.592 L166.888,33 L165.064,33 L165.064,30.84 C164.224,32.184 162.952,33.264 160.816,33.264 Z" id="TerraJigu" fill="#2043B5"></path>
                <g id="logo">
                    <path d="M19.4594595,0.749837838 L0.648648649,11.6108108 C0.247273665,11.8425448 0,12.2708024 0,12.7342703 L0,35.2034595 C0,35.6669274 0.247273665,36.095185 0.648648649,36.3269189 L20.1081081,47.5615135 C20.5094933,47.7932534 21.0040202,47.7932534 21.4054054,47.5615135 L40.8648649,36.3269189 C41.2662398,36.095185 41.5135135,35.6669274 41.5135135,35.2034595 L41.5135135,12.7342703 C41.5135135,12.2708024 41.2662398,11.8425448 40.8648649,11.6108108 L22.0540541,0.749837838 C21.2512837,0.286358154 20.2622298,0.286358154 19.4594595,0.749837838 Z" id="Path" fill="#2845AE"></path>
                    <circle id="Oval" fill="#FFFFFF" cx="20.7567568" cy="23.9688649" r="12.4540541"></circle>
                    <path d="M25.8188108,34.7001081 C26.1340966,34.4716183 26.4846853,34.2963239 26.8566486,34.1811892 C27.2302703,34.0436757 27.5987027,34.0307027 27.9256216,33.8179459 C28.3251892,33.5584865 28.3277838,33.1822703 28.428973,32.7411892 C28.5145946,32.364973 28.4678919,31.9290811 28.6495135,31.5891892 C28.8077838,31.296 29.2177297,31.0858378 29.4797838,30.8549189 C30.1647568,30.252973 29.9987027,29.2203243 29.0127568,29.1372973 C28.6287568,29.1061622 28.2862703,29.1762162 27.8996757,29.0724324 C27.487589,28.9554847 27.082224,28.8160322 26.6854054,28.6547027 C26.3584865,28.524973 25.6242162,27.1861622 24.9055135,26.7528649 C23.7379459,26.0523243 22.7494054,26.1535135 21.504,26.0082162 C20.0017297,25.8291892 19.4594595,25.3102703 18.9768649,25.1779459 C18.624,25.0793514 18.0272432,24.8458378 17.4512432,25.0715676 C16.5863566,25.5090521 16.2382869,26.5637034 16.6728649,27.4300541 C17.1295135,28.4315676 16.4523243,29.5472432 17.3708108,31.1766486 C18.2892973,32.8060541 19.187027,32.7723243 19.3868108,33.4936216 C19.5933345,34.2566196 19.6075972,35.0589001 19.4283243,35.8287568 C19.3822467,35.9945599 19.3492802,36.1637301 19.3297297,36.3347027 C21.2745292,36.5642168 23.246032,36.3285613 25.0819459,35.6471351 C25.1052973,35.6263784 25.1338378,35.6056216 25.1545946,35.5848649 C25.427027,35.3254054 25.5282162,34.9388108 25.8188108,34.7001081 Z" id="Path" fill="#5493F7"></path>
                    <path d="M30.4683243,16.1772973 C30.2088649,15.9593514 29.8274595,15.7076757 29.5991351,16.1098378 C29.2540541,16.7143784 29.8041081,17.388973 29.3085405,18.4890811 C28.812973,19.5891892 29.568,21.0525405 29.868973,21.5221622 C30.1699459,21.9917838 30.1076757,22.5963243 30.0998919,23.1282162 C30.0921081,23.6601081 30.5747027,24.1349189 31.2389189,24.3762162 C31.9031351,24.6175135 32.243027,25.6242162 32.7022703,25.5178378 C32.9772973,25.452973 33.1148108,25.1078919 33.1796757,24.8276757 C33.3977858,21.7056257 32.4294716,18.6162867 30.4683243,16.1772973 L30.4683243,16.1772973 Z" id="Path" fill="#5493F7"></path>
                    <path d="M23.436973,13.1468108 C24.5552432,13.6657297 24.7654054,13.0326486 25.3751351,13.5100541 C25.836973,13.8707027 26.3662703,14.6724324 25.523027,15.3677838 C25.1675676,15.660973 24.5734054,15.8140541 24.7602162,16.4886486 C24.864,16.8648649 25.2376216,17.1113514 25.9822703,17.2177297 C26.7269189,17.3241081 27.9878919,17.0854054 27.8789189,16.1124324 C27.8348108,15.7024865 27.7543784,15.3911351 27.7102703,14.7736216 C27.6661622,14.1561081 27.1654054,13.8603243 27.2432432,13.6345946 C27.2820664,13.5493855 27.3574602,13.4863983 27.4482162,13.4633514 C25.5726673,12.2693403 23.4120351,11.5983977 21.1900541,11.52 C21.5340555,11.6889473 21.8645449,11.8841182 22.1785946,12.1037838 C22.7208649,12.4592432 22.8531892,12.8847568 23.436973,13.1468108 Z" id="Path" fill="#5493F7"></path>
                    <path d="M13.7850811,28.5976216 C13.9386658,28.489138 14.025089,28.3088339 14.0134585,28.1211594 C14.001828,27.933485 13.893804,27.7652311 13.728,27.6765405 C13.4685405,27.5260541 12.9833514,27.4170811 12.8224865,27.180973 C12.6278919,26.8825946 13.1182703,26.5997838 12.7316757,25.9952432 C12.3450811,25.3907027 11.712,25.7591351 11.3331892,25.331027 C10.9543784,24.9029189 10.7727568,24.4540541 11.0737297,24.0077838 C11.3747027,23.5615135 11.9299459,23.2112432 12.7705946,23.5459459 C13.6112432,23.8806486 14.5997838,24.1530811 15.1057297,23.9117838 C15.6116757,23.6704865 15.4041081,23.0348108 16.0345946,22.6585946 C16.6650811,22.2823784 17.171027,21.9398919 17.4823784,21.1433514 C17.6541659,20.6222897 17.9854703,20.168448 18.4294054,19.8460541 C18.7744865,19.6203243 19.3452973,19.8460541 19.7448649,19.7578378 C20.4843243,19.6125405 20.4012973,19.1948108 20.4635676,18.6888649 C20.5258378,18.1829189 21.0162162,18.0687568 21.0162162,17.5861622 C21.0162162,17.1035676 20.4090811,17.0672432 19.8927568,16.6002162 C19.3764324,16.1331892 19.0936216,15.2847568 18.4968649,15.0434595 C17.961187,14.8575439 17.3754518,15.1359703 17.1814054,15.6687568 C17.0412973,16.1876757 16.8337297,16.5327568 16.2291892,16.4471351 C15.7258378,16.3796757 15.2691892,16.1383784 15.2614054,15.5675676 C15.2614054,15.1342703 15.648,14.9163243 16.4938378,14.2702703 C17.3396757,13.6242162 17.7314595,12.972973 17.5316757,12.563027 C17.3318919,12.1530811 16.3277838,12.4047568 16.2084324,12.3736216 C10.8733264,14.4643543 7.65331737,19.9256266 8.40648649,25.6060541 C8.79048649,26.0445405 9.23675676,26.7762162 9.80237838,27.2588108 C10.4619563,27.8362912 11.2158392,28.2961685 12.0311351,28.6183784 C12.7991351,28.9271351 13.5411892,28.7714595 13.7850811,28.5976216 Z" id="Path" fill="#5493F7"></path>
                    <g id="Group">
                        <polygon id="Path" fill="#2845AE" opacity="0.3" style="mix-blend-mode: multiply;" points="41.5135135 35.9507027 41.5135135 11.9844324 20.7567568 23.9688649 20.7567568 47.9351351"></polygon>
                        <polygon id="Path" fill="#FFFFFF" opacity="0.15" points="0 11.9844324 20.7567568 23.9688649 41.5135135 11.9844324 20.7567568 0"></polygon>
                    </g>
                </g>
            </g>
        </g>
    </g>
</svg>

<?xml version="1.0" encoding="utf-8"?>
<!-- Generator: Adobe Illustrator 24.1.0, SVG Export Plug-In . SVG Version: 6.00 Build 0)  -->
<svg version="1.1" id="Layer_1" xmlns="http://www.w3.org/2000/svg" xmlns:xlink="http://www.w3.org/1999/xlink" x="0px" y="0px"
	 viewBox="0 0 167 48" style="enable-background:new 0 0 167 48;" xml:space="preserve">
<style type="text/css">
	.st0{fill:#2043B5;}
	.st1{fill:#2845AE;}
	.st2{fill:#FFFFFF;}
	.st3{fill:#5493F7;}
	.st4{opacity:0.3;fill:#2845AE;enable-background:new    ;}
	.st5{opacity:0.15;fill:#FFFFFF;enable-background:new    ;}
</style>
<desc>Created with Sketch.</desc>
<g id="Page-1">
	<g id="Desktop-HD-Copy-3" transform="translate(-182.000000, -40.000000)">
		<g id="Group-2" transform="translate(182.000000, 40.000000)">
			<path id="TerraJigu" class="st0" d="M57.6,33V20.3h-5v-4.1h14.7v4.1h-5V33H57.6z M73.3,33.3c-4.1,0-7-2.7-7-6.7v0
				c0-3.8,2.7-6.8,6.6-6.8c4.5,0,6.5,3.3,6.5,7.1c0,0.3,0,0.6,0,0.9h-8.7c0.4,1.4,1.4,2.1,2.8,2.1c1.1,0,1.9-0.4,2.9-1.3l2.5,2.1
				C77.7,32.3,75.9,33.3,73.3,33.3z M70.6,25.4h4.5c-0.2-1.4-1-2.4-2.3-2.4C71.7,23.1,70.9,24,70.6,25.4z M81.4,33V20h4.6v2.6
				c0.7-1.8,1.9-2.9,4.1-2.8v4.8h-0.4c-2.4,0-3.7,1.4-3.7,4.3V33H81.4z M91.6,33V20h4.6v2.6c0.7-1.8,1.9-2.9,4.1-2.8v4.8h-0.4
				c-2.4,0-3.7,1.4-3.7,4.3V33H91.6z M105,33.3c-2.5,0-4.3-1.4-4.3-4v0c0-2.7,2-4.1,5.1-4.1c1.2,0,2.4,0.2,3.1,0.5v-0.2
				c0-1.4-0.8-2.1-2.6-2.1c-1.4,0-2.4,0.3-3.6,0.7l-0.9-3.2c1.5-0.6,3-1,5.3-1c2.3,0,3.9,0.6,4.9,1.6c1,1,1.4,2.3,1.4,4.1V33h-4.5
				v-1.4C108,32.6,106.7,33.3,105,33.3z M106.7,30.4c1.3,0,2.3-0.8,2.3-2.1v-0.6c-0.5-0.2-1.1-0.3-1.8-0.3c-1.3,0-2.1,0.6-2.1,1.6v0
				C105.1,29.9,105.7,30.4,106.7,30.4z M124.6,33.2c-2.5,0-4.1-1.2-5.2-3l1.4-1.2c1,1.6,2.1,2.4,3.8,2.4c1.9,0,3.3-1.4,3.3-4V16.2
				h1.9v11.2c0,2-0.6,3.5-1.5,4.4C127.4,32.8,126.1,33.2,124.6,33.2z M134.1,17.9v-2h2.1v2H134.1z M134.2,33V20.6h1.8V33H134.2z
				 M145.8,36.9c-2.1,0-4-0.6-5.6-1.7l0.8-1.4c1.4,1,3,1.6,4.8,1.6c2.7,0,4.5-1.5,4.5-4.4v-1.5c-1.1,1.4-2.6,2.6-4.9,2.6
				c-3,0-5.8-2.2-5.8-5.8v0c0-3.6,2.9-5.9,5.8-5.9c2.3,0,3.8,1.2,4.8,2.5v-2.2h1.8v10.2c0,1.9-0.6,3.4-1.6,4.4
				C149.4,36.3,147.8,36.9,145.8,36.9z M145.8,30.4c2.4,0,4.6-1.7,4.6-4.2v0c0-2.5-2.2-4.2-4.6-4.2c-2.4,0-4.3,1.6-4.3,4.2v0
				C141.5,28.7,143.5,30.4,145.8,30.4z M160.8,33.3c-3,0-4.8-2-4.8-5v-7.7h1.8v7.2c0,2.3,1.2,3.7,3.4,3.7c2.1,0,3.7-1.6,3.7-3.9
				v-7.1h1.8V33h-1.8v-2.2C164.2,32.2,163,33.3,160.8,33.3z"/>
			<g id="logo">
				<path id="Path" class="st1" d="M19.5,0.7L0.6,11.6C0.2,11.8,0,12.3,0,12.7v22.5c0,0.5,0.2,0.9,0.6,1.1l19.5,11.2
					c0.4,0.2,0.9,0.2,1.3,0l19.5-11.2c0.4-0.2,0.6-0.7,0.6-1.1V12.7c0-0.5-0.2-0.9-0.6-1.1L22.1,0.7C21.3,0.3,20.3,0.3,19.5,0.7z"/>
				<circle id="Oval" class="st2" cx="20.8" cy="24" r="12.5"/>
				<path id="Path_1_" class="st3" d="M25.8,34.7c0.3-0.2,0.7-0.4,1-0.5c0.4-0.1,0.7-0.2,1.1-0.4c0.4-0.3,0.4-0.6,0.5-1.1
					c0.1-0.4,0-0.8,0.2-1.2c0.2-0.3,0.6-0.5,0.8-0.7c0.7-0.6,0.5-1.6-0.5-1.7c-0.4,0-0.7,0-1.1-0.1c-0.4-0.1-0.8-0.3-1.2-0.4
					c-0.3-0.1-1.1-1.5-1.8-1.9c-1.2-0.7-2.2-0.6-3.4-0.7c-1.5-0.2-2-0.7-2.5-0.8c-0.4-0.1-0.9-0.3-1.5-0.1c-0.9,0.4-1.2,1.5-0.8,2.4
					c0.5,1-0.2,2.1,0.7,3.7c0.9,1.6,1.8,1.6,2,2.3c0.2,0.8,0.2,1.6,0,2.3c0,0.2-0.1,0.3-0.1,0.5c1.9,0.2,3.9,0,5.8-0.7
					c0,0,0.1,0,0.1-0.1C25.4,35.3,25.5,34.9,25.8,34.7z"/>
				<path id="Path_2_" class="st3" d="M30.5,16.2c-0.3-0.2-0.6-0.5-0.9-0.1c-0.3,0.6,0.2,1.3-0.3,2.4c-0.5,1.1,0.3,2.6,0.6,3
					c0.3,0.5,0.2,1.1,0.2,1.6c0,0.5,0.5,1,1.1,1.2c0.7,0.2,1,1.2,1.5,1.1c0.3-0.1,0.4-0.4,0.5-0.7C33.4,21.7,32.4,18.6,30.5,16.2
					L30.5,16.2z"/>
				<path id="Path_3_" class="st3" d="M23.4,13.1c1.1,0.5,1.3-0.1,1.9,0.4c0.5,0.4,1,1.2,0.1,1.9c-0.4,0.3-0.9,0.4-0.8,1.1
					c0.1,0.4,0.5,0.6,1.2,0.7c0.7,0.1,2-0.1,1.9-1.1c0-0.4-0.1-0.7-0.2-1.3c0-0.6-0.5-0.9-0.5-1.1c0-0.1,0.1-0.1,0.2-0.2
					c-1.9-1.2-4-1.9-6.3-1.9c0.3,0.2,0.7,0.4,1,0.6C22.7,12.5,22.9,12.9,23.4,13.1z"/>
				<path id="Path_4_" class="st3" d="M13.8,28.6c0.2-0.1,0.2-0.3,0.2-0.5c0-0.2-0.1-0.4-0.3-0.4c-0.3-0.2-0.7-0.3-0.9-0.5
					c-0.2-0.3,0.3-0.6-0.1-1.2c-0.4-0.6-1-0.2-1.4-0.7c-0.4-0.4-0.6-0.9-0.3-1.3s0.9-0.8,1.7-0.5c0.8,0.3,1.8,0.6,2.3,0.4
					c0.5-0.2,0.3-0.9,0.9-1.3c0.6-0.4,1.1-0.7,1.4-1.5c0.2-0.5,0.5-1,0.9-1.3c0.3-0.2,0.9,0,1.3-0.1c0.7-0.1,0.7-0.6,0.7-1.1
					c0.1-0.5,0.6-0.6,0.6-1.1c0-0.5-0.6-0.5-1.1-1c-0.5-0.5-0.8-1.3-1.4-1.6c-0.5-0.2-1.1,0.1-1.3,0.6c-0.1,0.5-0.3,0.9-1,0.8
					c-0.5-0.1-1-0.3-1-0.9c0-0.4,0.4-0.7,1.2-1.3c0.8-0.6,1.2-1.3,1-1.7c-0.2-0.4-1.2-0.2-1.3-0.2c-5.3,2.1-8.6,7.6-7.8,13.2
					c0.4,0.4,0.8,1.2,1.4,1.7c0.7,0.6,1.4,1,2.2,1.4C12.8,28.9,13.5,28.8,13.8,28.6z"/>
				<g id="Group">
					<polygon id="Path_5_" class="st4" points="41.5,36 41.5,12 20.8,24 20.8,47.9 					"/>
					<polygon id="Path_6_" class="st5" points="0,12 20.8,24 41.5,12 20.8,0 					"/>
				</g>
			</g>
		</g>
	</g>
</g>
</svg>
